build/assets/images/svg/food/12-sousy.svg

<svg width="28" height="28" viewBox="0 0 28 28" fill="none" xmlns="http://www.w3.org/2000/svg">
<path d="M5.95403 8.1795V9.1245C5.25403 9.1245 4.68703 9.73699 4.68703 10.493V25.998C4.68703 26.754 5.25403 27.3665 5.95403 27.3665H12.296C12.996 27.3665 13.563 26.754 13.563 25.998V10.493C13.563 9.73699 12.996 9.1245 12.296 9.1245V7.756C12.296 7 11.729 6.3875 11.029 6.3875H10.539L9.92653 2.7405C10.329 2.653 10.616 2.2715 10.609 1.827V0.913495C10.609 0.409495 10.231 0 9.76203 0H8.07153C7.77053 0.0035 7.49403 0.174996 7.34353 0.454996H6.38103C4.51203 0.454996 3.00003 2.0895 3.00003 4.102V4.557C2.99303 6.398 4.26353 7.9485 5.95403 8.1795ZM12.7195 20.979H5.53053V15.9635H12.7195V20.979ZM12.296 26.4495H5.95403C5.71953 26.4495 5.53053 26.2465 5.53053 25.9945V21.889H12.7195V25.9945C12.7195 26.2465 12.527 26.4495 12.296 26.4495ZM12.7195 10.4895V15.05H5.53053V10.4895C5.53053 10.2375 5.71953 10.0345 5.95403 10.0345H12.296C12.527 10.0345 12.7195 10.2375 12.7195 10.4895ZM11.449 7.7525V9.121H6.79753V7.7525C6.79753 7.5005 6.98653 7.2975 7.22103 7.2975H11.0255C11.26 7.2975 11.449 7.504 11.449 7.7525ZM8.15203 6.3875L8.76103 2.7405H9.06553L9.67453 6.3875H8.15203ZM9.75853 0.913495V1.827H8.06803V0.913495H9.75853ZM3.84003 4.10549C3.84003 2.59349 4.97753 1.3685 6.37753 1.3685H7.22453V1.8235C7.21753 2.2645 7.50453 2.6495 7.90703 2.737L7.29453 6.384C6.73803 6.3455 6.22353 6.706 6.02753 7.2695C4.77453 7.077 3.84703 5.9255 3.84703 4.5605V4.10549H3.84003Z" fill="#203686"/>
<path d="M7.64435 10.9444H6.79735C6.56286 10.9444 6.37385 11.1474 6.37385 11.3994C6.37385 11.6514 6.56286 11.8544 6.79735 11.8544H7.64435C7.87885 11.8544 8.06785 11.6514 8.06785 11.3994C8.06785 11.1474 7.87885 10.9444 7.64435 10.9444Z" fill="#203686"/>
<path d="M11.4489 10.9444H9.33486C9.10036 10.9444 8.91135 11.1474 8.91135 11.3994C8.91135 11.6514 9.10036 11.8544 9.33486 11.8544H11.4489C11.6834 11.8544 11.8724 11.6514 11.8724 11.3994C11.8724 11.1474 11.6834 10.9444 11.4489 10.9444Z" fill="#203686"/>
<path d="M13.3179 12.3516L12.9294 25.4836C12.9154 25.9771 13.1009 26.4566 13.4439 26.8101C13.7869 27.1636 14.2594 27.3631 14.7529 27.3631H22.8799C23.3734 27.3631 23.8459 27.1636 24.1889 26.8101C24.5319 26.4566 24.7174 25.9771 24.7034 25.4836L24.3149 12.3516C24.3009 11.7846 24.4059 11.2211 24.6299 10.6996C25.3019 9.1211 25.0849 7.3046 24.0594 5.9291L23.1459 4.71109C23.2929 4.54309 23.3734 4.32959 23.3734 4.10559V1.3686C23.3734 0.612599 22.7609 9.76525e-05 22.0049 9.76525e-05H15.6209C14.8649 9.76525e-05 14.2524 0.612599 14.2524 1.3686V4.10559C14.2524 4.32959 14.3364 4.54309 14.4834 4.70759L13.5664 5.9291C12.5409 7.3046 12.3239 9.12459 12.9959 10.7031C13.2269 11.2246 13.3354 11.7846 13.3179 12.3516ZM15.1694 2.7371H22.4669V4.10559H15.1694V2.7371ZM15.6279 0.913593H22.0119C22.2639 0.913593 22.4669 1.1166 22.4669 1.3686V1.82359H15.1694V1.3686C15.1694 1.1201 15.3759 0.913593 15.6279 0.913593ZM14.3049 6.47159L15.4004 5.01559H22.2394L23.3349 6.47159C24.1644 7.58809 24.3394 9.0616 23.7899 10.3391C23.5169 10.9831 23.3839 11.6796 23.4014 12.3761L23.7899 25.5081C23.7969 25.7531 23.7059 25.9946 23.5344 26.1696C23.3629 26.3446 23.1249 26.4461 22.8799 26.4461H14.7599C14.5149 26.4461 14.2769 26.3481 14.1054 26.1696C13.9339 25.9911 13.8394 25.7531 13.8499 25.5081L14.2384 12.3761C14.2559 11.6761 14.1229 10.9831 13.8499 10.3391C13.2969 9.0616 13.4719 7.58809 14.3049 6.47159Z" fill="#203686"/>
<path d="M16.0829 11.4031C15.5789 11.4031 15.1694 11.8126 15.1694 12.3166L14.8964 20.5241C14.8894 20.7726 14.9804 21.0106 15.1519 21.1891C15.3234 21.3676 15.5614 21.4691 15.8099 21.4691C17.8119 21.5251 19.8734 21.5251 21.8754 21.4691C22.1239 21.4691 22.3584 21.3676 22.5334 21.1891C22.7049 21.0106 22.7959 20.7691 22.7889 20.5241L22.4704 12.3166C22.4704 11.8126 22.0609 11.4031 21.5569 11.4031C18.4069 11.5011 16.2824 11.4031 16.0829 11.4031ZM21.5534 12.3131L21.8089 20.5206C19.8174 20.5766 17.7909 20.5766 15.7959 20.5206L16.0829 12.3131C17.9064 12.3796 19.7299 12.3796 21.5534 12.3131Z" fill="#203686"/>
<path d="M15.2534 10.0343C15.4039 10.0343 15.5474 9.96083 15.6314 9.83483C15.7154 9.70883 15.7329 9.55132 15.6769 9.41132C15.3409 8.64132 15.5579 7.74183 16.2089 7.20983C16.4119 7.05933 16.4504 6.77233 16.2999 6.57283C16.1494 6.36983 15.8624 6.33132 15.6629 6.48182C14.6829 7.26232 14.3399 8.59932 14.8299 9.75082C14.8964 9.91882 15.0644 10.0343 15.2534 10.0343Z" fill="#203686"/>
<path d="M16.0829 24.6259H15.1694C14.9174 24.6259 14.7144 24.8289 14.7144 25.0809C14.7144 25.3329 14.9174 25.5359 15.1694 25.5359H16.0829C16.3349 25.5359 16.5379 25.3329 16.5379 25.0809C16.5379 24.8289 16.3349 24.6259 16.0829 24.6259Z" fill="#203686"/>
<path d="M17.9063 24.6259C17.6543 24.6259 17.4513 24.8289 17.4513 25.0809C17.4513 25.3329 17.6543 25.5359 17.9063 25.5359H22.4668C22.7188 25.5359 22.9218 25.3329 22.9218 25.0809C22.9218 24.8289 22.7188 24.6259 22.4668 24.6259H17.9063Z" fill="#203686"/>
</svg>

<svg width="28" height="28" fill="none" xmlns="http://www.w3.org/2000/svg"><path d="M5.954 8.18v.944c-.7 0-1.267.613-1.267 1.369v15.505c0 .756.567 1.368 1.267 1.368h6.342c.7 0 1.267-.612 1.267-1.368V10.493c0-.756-.567-1.369-1.267-1.369V7.756c0-.756-.567-1.369-1.267-1.369h-.49l-.612-3.646c.402-.088.689-.47.682-.914V.913c0-.504-.378-.913-.847-.913h-1.69a.84.84 0 00-.728.455H6.38C4.512.455 3 2.09 3 4.102v.455C2.993 6.398 4.264 7.948 5.954 8.18zm6.766 12.799H5.53v-5.015h7.19v5.015zm-.424 5.47H5.954c-.234 0-.423-.203-.423-.455V21.89h7.189v4.105c0 .253-.193.456-.424.456zm.424-15.96v4.561H5.53v-4.56c0-.252.19-.456.424-.456h6.342c.231 0 .424.204.424.455zm-1.271-2.737v1.369H6.798V7.752c0-.252.189-.454.423-.454h3.804c.235 0 .424.206.424.455zM8.152 6.389l.609-3.647h.305l.609 3.647H8.152zM9.759.913v.914H8.068V.913h1.69zM3.84 4.105c0-1.512 1.138-2.737 2.538-2.737h.847v.455c-.007.442.28.827.682.914l-.612 3.647c-.557-.038-1.071.322-1.267.885-1.253-.192-2.181-1.343-2.181-2.708v-.456H3.84z" fill="#203686"/><path d="M7.644 10.944h-.847c-.234 0-.423.203-.423.455s.189.455.423.455h.847c.235 0 .424-.203.424-.455s-.19-.455-.424-.455zm3.805 0H9.335c-.235 0-.424.203-.424.455s.19.455.424.455h2.114c.234 0 .423-.203.423-.455s-.189-.455-.423-.455zm1.869 1.408l-.389 13.132a1.824 1.824 0 001.824 1.88h8.127a1.824 1.824 0 001.823-1.88l-.388-13.132a3.936 3.936 0 01.315-1.652 4.821 4.821 0 00-.57-4.77l-.914-1.219a.916.916 0 00.227-.605V1.369C23.373.613 22.761 0 22.005 0H15.62a1.37 1.37 0 00-1.369 1.369v2.737c0 .224.084.437.231.602l-.917 1.221a4.828 4.828 0 00-.57 4.774 3.77 3.77 0 01.322 1.649zm1.851-9.615h7.298v1.369h-7.298V2.737zm.459-1.823h6.384c.252 0 .455.203.455.455v.455h-7.298v-.455a.46.46 0 01.459-.455zm-1.323 5.558L15.4 5.016h6.84l1.095 1.456a3.901 3.901 0 01.455 3.867 4.911 4.911 0 00-.389 2.037l.389 13.132a.91.91 0 01-.91.938h-8.12a.908.908 0 01-.91-.938l.388-13.132a4.9 4.9 0 00-.388-2.037 3.884 3.884 0 01.455-3.867z" fill="#203686"/><path d="M16.083 11.403a.914.914 0 00-.914.914l-.273 8.207a.918.918 0 00.914.945c2.002.056 4.063.056 6.065 0a.92.92 0 00.658-.28.924.924 0 00.256-.665l-.319-8.207a.914.914 0 00-.913-.914c-3.15.098-5.275 0-5.474 0zm5.47.91l.256 8.208c-1.992.056-4.018.056-6.013 0l.287-8.208c1.823.067 3.647.067 5.47 0zm-6.3-2.279a.454.454 0 00.424-.623 1.874 1.874 0 01.532-2.201.454.454 0 00.09-.637.454.454 0 00-.636-.091 2.786 2.786 0 00-.833 3.269.456.456 0 00.423.283zm.83 14.592h-.914a.454.454 0 100 .91h.914a.454.454 0 100-.91zm1.823 0a.454.454 0 100 .91h4.56a.454.454 0 100-.91h-4.56z" fill="#203686"/></svg> 4.54309 14.4834 4.70759L13.5664 5.9291C12.5409 7.3046 12.3239 9.12459 12.9959 10.7031C13.2269 11.2246 13.3354 11.7846 13.3179 12.3516ZM15.1694 2.7371H22.4669V4.10559H15.1694V2.7371ZM15.6279 0.913593H22.0119C22.2639 0.913593 22.4669 1.1166 22.4669 1.3686V1.82359H15.1694V1.3686C15.1694 1.1201 15.3759 0.913593 15.6279 0.913593ZM14.3049 6.47159L15.4004 5.01559H22.2394L23.3349 6.47159C24.1644 7.58809 24.3394 9.0616 23.7899 10.3391C23.5169 10.9831 23.3839 11.6796 23.4014 12.3761L23.7899 25.5081C23.7969 25.7531 23.7059 25.9946 23.5344 26.1696C23.3629 26.3446 23.1249 26.4461 22.8799 26.4461H14.7599C14.5149 26.4461 14.2769 26.3481 14.1054 26.1696C13.9339 25.9911 13.8394 25.7531 13.8499 25.5081L14.2384 12.3761C14.2559 11.6761 14.1229 10.9831 13.8499 10.3391C13.2969 9.0616 13.4719 7.58809 14.3049 6.47159Z" fill="#203686"/>
<path d="M16.0829 11.4031C15.5789 11.4031 15.1694 11.8126 15.1694 12.3166L14.8964 20.5241C14.8894 20.7726 14.9804 21.0106 15.1519 21.1891C15.3234 21.3676 15.5614 21.4691 15.8099 21.4691C17.8119 21.5251 19.8734 21.5251 21.8754 21.4691C22.1239 21.4691 22.3584 21.3676 22.5334 21.1891C22.7049 21.0106 22.7959 20.7691 22.7889 20.5241L22.4704 12.3166C22.4704 11.8126 22.0609 11.4031 21.5569 11.4031C18.4069 11.5011 16.2824 11.4031 16.0829 11.4031ZM21.5534 12.3131L21.8089 20.5206C19.8174 20.5766 17.7909 20.5766 15.7959 20.5206L16.0829 12.3131C17.9064 12.3796 19.7299 12.3796 21.5534 12.3131Z" fill="#203686"/>
<path d="M15.2534 10.0343C15.4039 10.0343 15.5474 9.96083 15.6314 9.83483C15.7154 9.70883 15.7329 9.55132 15.6769 9.41132C15.3409 8.64132 15.5579 7.74183 16.2089 7.20983C16.4119 7.05933 16.4504 6.77233 16.2999 6.57283C16.1494 6.36983 15.8624 6.33132 15.6629 6.48182C14.6829 7.26232 14.3399 8.59932 14.8299 9.75082C14.8964 9.91882 15.0644 10.0343 15.2534 10.0343Z" fill="#203686"/>
<path d="M16.0829 24.6259H15.1694C14.9174 24.6259 14.7144 24.8289 14.7144 25.0809C14.7144 25.3329 14.9174 25.5359 15.1694 25.5359H16.0829C16.3349 25.5359 16.5379 25.3329 16.5379 25.0809C16.5379 24.8289 16.3349 24.6259 16.0829 24.6259Z" fill="#203686"/>
<path d="M17.9063 24.6259C17.6543 24.6259 17.4513 24.8289 17.4513 25.0809C17.4513 25.3329 17.6543 25.5359 17.9063 25.5359H22.4668C22.7188 25.5359 22.9218 25.3329 22.9218 25.0809C22.9218 24.8289 22.7188 24.6259 22.4668 24.6259H17.9063Z" fill="#203686"/>
</svg>
